Catalina-dark/actions/22/kt-queue-manager.svg

<svg xmlns="http://www.w3.org/2000/svg" viewBox="0 0 22 22">
  <defs id="defs3051">
    <style type="text/css" id="current-color-scheme">
      .ColorScheme-Text {
        color:#f2f2f2;
      }
      .ColorScheme-Highlight {
        color:#3daee9;
      }
      </style>
  </defs>
 <path 
     style="fill:currentColor;fill-opacity:1;stroke:none" 
     d="M 7.8613281 3.5703125 C 7.7840463 3.5703125 7.7166399 3.5997664 7.6601562 3.65625 C 7.6036726 3.7128431 7.5761719 3.7781869 7.5761719 3.8554688 L 7.5761719 5.5683594 C 7.5761719 5.6456412 7.6036726 5.7129382 7.6601562 5.7695312 C 7.7166399 5.8259054 7.7840463 5.8535156 7.8613281 5.8535156 L 18.705078 5.8535156 C 18.782469 5.8535156 18.849657 5.8260149 18.90625 5.7695312 C 18.962734 5.7129382 18.990234 5.6456412 18.990234 5.5683594 L 18.990234 3.8554688 C 18.990234 3.7781869 18.962624 3.7127336 18.90625 3.65625 C 18.849547 3.5998758 18.782469 3.5703125 18.705078 3.5703125 L 7.8613281 3.5703125 z M 7.8613281 9.8398438 C 7.7840463 9.8398438 7.7166399 9.867235 7.6601562 9.9238281 C 7.6036726 9.9803118 7.5761719 10.047718 7.5761719 10.125 L 7.5761719 11.835938 C 7.5761719 11.91311 7.6036726 11.980626 7.6601562 12.037109 C 7.7166399 12.093702 7.7840463 12.123047 7.8613281 12.123047 L 18.705078 12.123047 C 18.782469 12.123047 18.849657 12.093702 18.90625 12.037109 C 18.962734 11.980626 18.990234 11.91311 18.990234 11.835938 L 18.990234 10.125 C 18.990234 10.047718 18.962624 9.9802023 18.90625 9.9238281 C 18.849547 9.8673445 18.782469 9.8398438 18.705078 9.8398438 L 7.8613281 9.8398438 z M 7.8613281 16.146484 C 7.7840463 16.146484 7.7166399 16.173985 7.6601562 16.230469 C 7.6036726 16.286952 7.5761719 16.354468 7.5761719 16.431641 L 7.5761719 18.144531 C 7.5761719 18.221923 7.6036726 18.287157 7.6601562 18.34375 C 7.7166399 18.400124 7.7840463 18.429688 7.8613281 18.429688 L 18.705078 18.429688 C 18.782469 18.429688 18.849657 18.400124 18.90625 18.34375 C 18.962734 18.287157 18.990234 18.221923 18.990234 18.144531 L 18.990234 16.431641 C 18.990234 16.354468 18.962624 16.286843 18.90625 16.230469 C 18.849547 16.174095 18.782469 16.146484 18.705078 16.146484 L 7.8613281 16.146484 z "
     class="ColorScheme-Text"
     />
 <path 
     style="fill:currentColor;fill-opacity:1;stroke:none" 
     d="M 4.7207031 3 C 4.2449709 3 3.8408032 3.1671188 3.5078125 3.5 C 3.1749313 3.8329907 3.0097656 4.2372678 3.0097656 4.7128906 C 3.0097656 5.1886229 3.1748218 5.5927906 3.5078125 5.9257812 C 3.8408032 6.2586625 4.2450803 6.4238281 4.7207031 6.4238281 C 5.1963259 6.4238281 5.6006031 6.2586625 5.9335938 5.9257812 C 6.266475 5.5927906 6.4335938 5.1886229 6.4335938 4.7128906 C 6.4335938 4.2372678 6.266475 3.8329907 5.9335938 3.5 C 5.6007125 3.1671188 5.1964354 3 4.7207031 3 z M 4.7207031 9.2675781 C 4.2449709 9.2675781 3.8408032 9.4345874 3.5078125 9.7675781 C 3.1749313 10.100459 3.0097656 10.504736 3.0097656 10.980469 C 3.0097656 11.456092 3.1748218 11.860478 3.5078125 12.193359 C 3.8408032 12.526241 4.2450803 12.693359 4.7207031 12.693359 C 5.1963259 12.693359 5.6006031 12.526241 5.9335938 12.193359 C 6.266475 11.860478 6.4335938 11.456092 6.4335938 10.980469 C 6.4335938 10.504736 6.2665844 10.100459 5.9335938 9.7675781 C 5.6007125 9.4346969 5.1964354 9.2675781 4.7207031 9.2675781 z M 4.7207031 15.576172 C 4.2449709 15.576172 3.8406937 15.741228 3.5078125 16.074219 C 3.1749313 16.407209 3.0097656 16.811487 3.0097656 17.287109 C 3.0097656 17.762951 3.1748218 18.167009 3.5078125 18.5 C 3.8408032 18.832881 4.2450803 19 4.7207031 19 C 5.1963259 19 5.6006031 18.832881 5.9335938 18.5 C 6.266475 18.167009 6.4335938 17.762951 6.4335938 17.287109 C 6.4335938 16.811487 6.266475 16.4071 5.9335938 16.074219 C 5.6007125 15.741338 5.1964354 15.576172 4.7207031 15.576172 z "
     class="ColorScheme-Highlight"
     />
</svg>

<svg viewBox="0 0 22 22" xmlns="http://www.w3.org/2000/svg">
<defs>
<style id="current-color-scheme" type="text/css">.ColorScheme-Text {
        color:#dedede;
      }
      .ColorScheme-Highlight {
        color:#3daee9;
      }</style>
</defs>
<path class="ColorScheme-Text" d="m7.8613 3.5703c-0.077282 0-0.14469 0.029454-0.20117 0.085938-0.056484 0.056593-0.083984 0.12194-0.083984 0.19922v1.7129c0 0.077282 0.027501 0.14458 0.083984 0.20117 0.056484 0.056374 0.12389 0.083984 0.20117 0.083984h10.844c0.077391 0 0.14458-0.027501 0.20117-0.083984 0.056484-0.056593 0.083984-0.12389 0.083984-0.20117v-1.7129c0-0.077282-0.02761-0.14274-0.083984-0.19922-0.056703-0.056374-0.12378-0.085938-0.20117-0.085938h-10.844zm0 6.2695c-0.077282 0-0.14469 0.027391-0.20117 0.083984-0.056484 0.056484-0.083984 0.12389-0.083984 0.20117v1.7109c0 0.077172 0.027501 0.14469 0.083984 0.20117 0.056484 0.056593 0.12389 0.085938 0.20117 0.085938h10.844c0.077391 0 0.14458-0.029345 0.20117-0.085938 0.056484-0.056483 0.083984-0.124 0.083984-0.20117v-1.7109c0-0.077282-0.02761-0.1448-0.083984-0.20117-0.056703-0.056484-0.12378-0.083984-0.20117-0.083984h-10.844zm0 6.3066c-0.077282 0-0.14469 0.027501-0.20117 0.083985-0.056484 0.056483-0.083984 0.124-0.083984 0.20117v1.7129c0 0.077392 0.027501 0.14263 0.083984 0.19922 0.056484 0.056374 0.12389 0.085938 0.20117 0.085938h10.844c0.077391 0 0.14458-0.029564 0.20117-0.085938 0.056484-0.056593 0.083984-0.12183 0.083984-0.19922v-1.7129c0-0.077173-0.02761-0.1448-0.083984-0.20117-0.056703-0.056374-0.12378-0.083985-0.20117-0.083985h-10.844z" fill="currentColor"/>
<path class="ColorScheme-Highlight" d="m4.7207 3c-0.47573 0-0.8799 0.16712-1.2129 0.5-0.33288 0.33299-0.49805 0.73727-0.49805 1.2129 0 0.47573 0.16506 0.8799 0.49805 1.2129 0.33299 0.33288 0.73727 0.49805 1.2129 0.49805s0.8799-0.16517 1.2129-0.49805c0.33288-0.33299 0.5-0.73716 0.5-1.2129 0-0.47562-0.16712-0.8799-0.5-1.2129-0.33288-0.33288-0.73716-0.5-1.2129-0.5zm0 6.2676c-0.47573 0-0.8799 0.16701-1.2129 0.5-0.33288 0.33288-0.49805 0.73716-0.49805 1.2129 0 0.47562 0.16506 0.88001 0.49805 1.2129 0.33299 0.33288 0.73727 0.5 1.2129 0.5s0.8799-0.16712 1.2129-0.5c0.33288-0.33288 0.5-0.73727 0.5-1.2129 0-0.47573-0.16701-0.88001-0.5-1.2129-0.33288-0.33288-0.73716-0.5-1.2129-0.5zm0 6.3086c-0.47573 0-0.88001 0.16506-1.2129 0.49805-0.33288 0.33299-0.49805 0.73727-0.49805 1.2129 0 0.47584 0.16506 0.8799 0.49805 1.2129 0.33299 0.33288 0.73727 0.5 1.2129 0.5s0.8799-0.16712 1.2129-0.5c0.33288-0.33299 0.5-0.73705 0.5-1.2129 0-0.47562-0.16712-0.88001-0.5-1.2129-0.33288-0.33288-0.73716-0.49805-1.2129-0.49805z" fill="currentColor"/>
</svg>
